X:1
T:Title
%%score { ( 1 3 ) | 2 }
L:1/8
M:4/4
K:D
V:1 treble nm="Grand Piano"
V:3 treble 
V:2 bass 
V:1
 z4 z2[Q:1/4=100] D2 | FF F2 F2 F[EG] | [FA]2 [FA]2 [FA]2 [Ad]2 | B2 AA G2 F2 |[M:3/4] [CE]6 | %5
[M:1/4] [DF]2 |[M:4/4] [EG]2 [EG][EG] [EG]2 [Gc][CGc] | [DFB][DFB] [A,DF]2 [DFA]2 [FB]2 | %8
 c2 EE F2 ^G2 |[M:3/4] [CA]6 |[M:1/4] Bc |[M:4/4] [Fd]2 [Gd]2 [Fd]3 [DAc] | [DGB]2 [DGd]2 [DFA]4 | %13
 [DGB]<[DGB] [^DAB]2 [^Ge]2 [Gf]2 |[M:3/4] e4 z2 |[M:1/4] Bc |[M:4/4] [Fd]3 [Ge] [Fd]2 [Gc][CGB] | %17
 z4 z2 d2 | [Fd]<[Fd] [DF]2 [CA]2 C2 |[M:3/4] D6 |] %20
V:2
 z4 z2 [D,F,]2 | [D,A,D][D,A,D] [D,A,D]2 [D,A,D]2 [D,A,D][D,A,] | [D,D]2 [D,D]2 [D,D]2 [F,D]2 | %3
 [G,DG]2 [F,D][F,D] [E,A,C]2 [D,A,D]2 |[M:3/4] [A,,A,]6 |[M:1/4] [A,,A,]2 | %6
[M:4/4] [A,,A,]2 [A,,A,][A,,A,] [A,,A,]2 [A,,A,]A,, | D,D, D,2 D,2 [D,A,]2 | %8
 [E,A,E]2 [E,A,C][E,A,C] [E,^G,D]2 [E,B,D]2 |[M:3/4] [A,,A,]6 |[M:1/4][K:treble] [A,G][A,G] | %11
[M:4/4][K:bass] [D,A,]2 [D,B,]2 [D,A,]3 F, | G,2 B,,2 D,4 | G,<G, F,2 [E,D]2 [E,D]2 | %14
[M:3/4][K:treble] [A,CG]<[A,C] [A,C]2 [A,CG]2 |[M:1/4] [A,G]2 | %16
[M:4/4][K:bass] [D,A,]3 [D,A,] [D,A,]2 [D,B,]D, | D,2 D,2 D,=C,B,,^A,, | %18
 [A,,A,]<[A,,A,] [A,,A,]2 [A,,E,]2 [A,,G,A,]2 |[M:3/4] [D,F,A,]6 |] %20
V:3
 x8 | x8 | x8 | x8 |[M:3/4] x6 |[M:1/4] x2 |[M:4/4] x8 | x8 | x8 |[M:3/4] x6 |[M:1/4] x2 | %11
[M:4/4] x8 | x8 | x8 |[M:3/4] z/ G3/2 G2 A2 |[M:1/4] x2 |[M:4/4] x8 | %17
 [DFA]2 [A,DF]2 [DFA]2 [DG][^G,=F] | x8 |[M:3/4] x6 |] %20

